stories/assets/img/rewards_funds.svg

<?xml version="1.0" encoding="UTF-8"?>
<svg width="17px" height="17px" viewBox="0 0 17 17" version="1.1" xmlns="http://www.w3.org/2000/svg" xmlns:xlink="http://www.w3.org/1999/xlink">
    <!-- Generator: Sketch 50.2 (55047) - http://www.bohemiancoding.com/sketch -->
    <title>wallet (1)</title>
    <desc>Created with Sketch.</desc>
    <defs>
        <polygon id="path-1" points="0.00217021277 0.0238361702 16.9758745 0.0238361702 16.9758745 17 0.00217021277 17"></polygon>
    </defs>
    <g id="settings" stroke="none" stroke-width="1" fill="none" fill-rule="evenodd">
        <g id="1-full" transform="translate(-1047.000000, -381.000000)">
            <g id="wallet" transform="translate(850.000000, 221.000000)">
                <g id="header" transform="translate(-93.000000, -6.000000)">
                    <g id="wallet-(1)" transform="translate(290.000000, 166.000000)">
                        <g id="Group-3">
                            <mask id="mask-2" fill="white">
                                <use xlink:href="#path-1"></use>
                            </mask>
                            <g id="Clip-2"></g>
                            <path d="M16.2042553,11.9843851 C16.2042553,12.1972468 16.0313255,12.3702128 15.8184277,12.3702128 L13.1177426,12.3702128 C12.2665851,12.3702128 11.5744681,11.6780596 11.5744681,10.8269383 C11.5744681,9.97581702 12.2665851,9.28366383 13.1177426,9.28366383 L15.8184277,9.28366383 C16.0313255,9.28366383 16.2042553,9.45662979 16.2042553,9.66949149 L16.2042553,11.9843851 Z M14.6609809,16.2283447 L1.54327447,16.2283447 C1.1178766,16.2283447 0.771619149,15.8820872 0.771619149,15.4567255 L0.771619149,6.19715106 C0.771619149,5.77178936 1.1178766,5.42553191 1.54327447,5.42553191 L14.6609809,5.42553191 C15.0863787,5.42553191 15.4326362,5.77178936 15.4326362,6.19715106 L15.4326362,8.51204468 L13.1177426,8.51204468 C11.8412234,8.51204468 10.8028489,9.55041915 10.8028489,10.8269383 C10.8028489,12.1034574 11.8412234,13.1418319 13.1177426,13.1418319 L15.4326362,13.1418319 L15.4326362,15.4567255 C15.4326362,15.8820872 15.0863787,16.2283447 14.6609809,16.2283447 Z M10.8616255,0.898612766 C11.0360745,0.796504255 11.2398936,0.769376596 11.4346702,0.821353191 C11.6317255,0.874089362 11.7960106,1.00144468 11.8981191,1.17965532 L11.8989149,1.18106596 L5.93408511,4.6538766 L4.41092128,4.6538766 L10.8616255,0.898612766 Z M13.0465234,3.18551064 L13.8871915,4.6538766 L10.5244106,4.6538766 L13.0465234,3.18551064 Z M7.46759362,4.6538766 L12.282283,1.85068511 L12.6631553,2.51589149 L8.99082979,4.6538766 L7.46759362,4.6538766 Z M16.2042553,8.58311915 L16.2042553,6.19715106 C16.2042553,5.38809574 15.5767021,4.7301234 14.7838149,4.66631915 L12.5680277,0.796106383 C12.3626894,0.438165957 12.031117,0.182334043 11.634366,0.0761021277 C11.2395319,-0.029406383 10.8265766,0.0259702128 10.4731574,0.231706383 L2.87730426,4.6538766 L1.54327447,4.6538766 C0.692117021,4.6538766 0,5.34602979 0,6.19715106 L0,15.4567255 C0,16.3078468 0.692117021,17 1.54327447,17 L14.6609809,17 C15.5121383,17 16.2042553,16.3078468 16.2042553,15.4567255 L16.2042553,13.0707574 C16.6523681,12.9109574 16.9758745,12.486717 16.9758745,11.9843851 L16.9758745,9.66949149 C16.9758745,9.16715957 16.6523681,8.74291915 16.2042553,8.58311915 Z" id="Fill-1" fill="#A1A8F2" mask="url(#mask-2)"></path>
                        </g>
                        <path d="M13.0946107,10.1081081 C12.7146659,10.1081081 12.4054054,10.4173758 12.4054054,10.7972973 C12.4054054,11.1772188 12.7146659,11.4864865 13.0946107,11.4864865 C13.4745233,11.4864865 13.7837838,11.1772188 13.7837838,10.7972973 C13.7837838,10.4173758 13.4745233,10.1081081 13.0946107,10.1081081" id="Fill-4" fill="#A1A8F2"></path>
                    </g>
                </g>
            </g>
        </g>
    </g>
</svg>

<svg width='17' height='17' xmlns='http://www.w3.org/2000/svg' xmlns:xlink='http://www.w3.org/1999/xlink'>
  <defs>
    <path id='a' d='M.002.024h16.974V17H.002z'/>
  </defs>
  <g fill='none' fill-rule='evenodd'>
    <g>
      <mask id='b' fill='#fff'>
        <use xlink:href='#a'/>
      </mask>
      <path d='M16.204 11.984a.386.386 0 0 1-.386.386h-2.7a1.545 1.545 0 0 1-1.544-1.543c0-.851.693-1.543 1.544-1.543h2.7c.213 0 .386.173.386.385v2.315zm-1.543 4.244H1.543a.773.773 0 0 1-.771-.771v-9.26c0-.425.346-.771.771-.771h13.118c.425 0 .772.346.772.771v2.315h-2.315a2.317 2.317 0 0 0-2.315 2.315 2.317 2.317 0 0 0 2.315 2.315h2.315v2.315a.773.773 0 0 1-.772.771zm-3.8-15.33a.757.757 0 0 1 1.036.281l.002.002-5.965 3.473H4.411L10.86.899zm2.186 2.288l.84 1.468h-3.363l2.523-1.468zm-5.58 1.468l4.815-2.803.381.665-3.672 2.138H7.468zm8.737 3.93V6.196a1.54 1.54 0 0 0-1.42-1.53L12.568.796a1.525 1.525 0 0 0-2.095-.565L2.877 4.654H1.543C.693 4.654 0 5.346 0 6.197v9.26C0 16.307.692 17 1.543 17h13.118c.851 0 1.543-.692 1.543-1.543V13.07c.448-.16.772-.584.772-1.087V9.67c0-.502-.324-.926-.772-1.086z' fill='#A1A8F2' mask='url(#b)'/>
    </g>
    <path d='M13.095 10.108a.69.69 0 0 0 0 1.378.69.69 0 0 0 0-1.378' fill='#A1A8F2'/>
  </g>
</svg>
